X: 2025
T: Ashmolean House
R: reel
M: 4/4
K: Dmajor
AF FF ED BA|D2 FD FA AA|ddfd efdB|AF DE FE E2|
AF FF ED BA|D2 FD FA AB|ABde dBAF|AB EG FA D2:|
|:de fg a3 b|af df eB B2|de fg a3 b|af df e4|
fddd Addd|edcd egfe|dB AF A3 F|AB EG FA D2:|

